X:160
T:Trip to Richmond, A
M:2/4
L:1/8
B:Thompson's Compleat Collection of 200 Favourite Country Dances, vol. 2 (London, 1765)
Z:Transcribed and edited by Flynn Titford-Mock, 2007
Z:abc's:AK/Fiddler's Companion
K:A
Acec | a2e2 | fgaf | ecBA | Acec | a2e2 | fedc | "tr"c2B2 | Acec | aedc | fgaf |
ecBA | Acec | aedc | BABc | A4 :: ecec | ecec | fdfd | fdfd | ecec |
ecec | aedc | "tr"c2B2 | ecec | ecec | fdfd | fdfd | ecec | aedc | fdcB | A4 :|

